assets/img/braze_icons/phone.svg

<svg fill="none" height="24" viewBox="0 0 24 24" width="24" xmlns="http://www.w3.org/2000/svg"><path clip-rule="evenodd" d="m16.0558 21.8804c-3.1932-.9064-6.20612-2.6167-8.71776-5.1284-2.51163-2.5116-4.22198-5.5245-5.12832-8.71776-.00537-.01893-.0107-.0377-.01599-.05631-.14751-.51902-.2619-.92149-.26354-1.47338-.00188-.63077.20363-1.42101.51256-1.97096.53128-.94577 1.67204-2.15782 2.65737-2.65619.85134-.43061 1.85674-.43061 2.70808 0 .84224.426 1.78023 1.37956 2.3031 2.18382.6465.99434.6465 2.27621 0 3.27054-.1732.26645-.42013.51297-.70679.79914-.08926.08911-.18751.1535-.12226.28939.64782 1.34928 1.53135 2.61491 2.65195 3.73551 1.1207 1.1207 2.3863 2.0042 3.7356 2.652.1407.0676.1961-.0288.2894-.1222.2862-.2867.5327-.5336.7991-.7069.9944-.6465 2.2762-.6465 3.2706 0 .7827.509 1.7611 1.4675 2.1838 2.3032.4306.8513.4306 1.8567 0 2.7081-.4984.9853-1.7104 2.126-2.6562 2.6573-.55.309-1.3402.5145-1.971.5126-.5519-.0017-.9543-.116-1.4733-.2635-.0187-.0053-.0374-.0107-.0564-.016z" fill="#801ed7" fill-rule="evenodd"/></svg>

<svg width="24" height="24" viewBox="0 0 24 24" fill="none" xmlns="http://www.w3.org/2000/svg">
<path fill-rule="evenodd" clip-rule="evenodd" d="M16.0558 21.8804C12.8626 20.974 9.84968 19.2637 7.33804 16.752C4.82641 14.2404 3.11606 11.2275 2.20972 8.03424C2.20435 8.01531 2.19902 7.99654 2.19373 7.97793C2.04622 7.45891 1.93183 7.05644 1.93019 6.50455C1.92831 5.87378 2.13382 5.08354 2.44275 4.53359C2.97403 3.58782 4.11479 2.37577 5.10012 1.8774C5.95146 1.44679 6.95686 1.44679 7.8082 1.8774C8.65044 2.3034 9.58843 3.25696 10.1113 4.06122C10.7578 5.05556 10.7578 6.33743 10.1113 7.33176C9.9381 7.59821 9.69117 7.84473 9.40451 8.1309C9.31525 8.22001 9.217 8.2844 9.28225 8.42029C9.93007 9.76957 10.8136 11.0352 11.9342 12.1558C13.0549 13.2765 14.3205 14.16 15.6698 14.8078C15.8105 14.8754 15.8659 14.779 15.9592 14.6856C16.2454 14.3989 16.4919 14.152 16.7583 13.9787C17.7527 13.3322 19.0345 13.3322 20.0289 13.9787C20.8116 14.4877 21.79 15.4462 22.2127 16.2819C22.6433 17.1332 22.6433 18.1386 22.2127 18.99C21.7143 19.9753 20.5023 21.116 19.5565 21.6473C19.0065 21.9563 18.2163 22.1618 17.5855 22.1599C17.0336 22.1582 16.6312 22.0439 16.1122 21.8964C16.0935 21.8911 16.0748 21.8857 16.0558 21.8804Z" fill="#801ED7"/>
</svg>
